icons/laundry-15.svg

<?xml version="1.0" encoding="UTF-8" standalone="no"?>
<svg
   xmlns:dc="http://purl.org/dc/elements/1.1/"
   xmlns:cc="http://creativecommons.org/ns#"
   xmlns:rdf="http://www.w3.org/1999/02/22-rdf-syntax-ns#"
   xmlns:svg="http://www.w3.org/2000/svg"
   xmlns="http://www.w3.org/2000/svg"
   xmlns:sodipodi="http://sodipodi.sourceforge.net/DTD/sodipodi-0.dtd"
   xmlns:inkscape="http://www.inkscape.org/namespaces/inkscape"
   version="1.1"
   width="15"
   height="15"
   id="svg4619"
   xml:space="preserve"
   viewBox="0 0 15 15"
   inkscape:version="0.91 r13725"
   sodipodi:docname="laundry-15.svg"><metadata
     id="metadata8"><rdf:RDF><cc:Work
         rdf:about=""><dc:format>image/svg+xml</dc:format><dc:type
           rdf:resource="http://purl.org/dc/dcmitype/StillImage" /><dc:title></dc:title></cc:Work></rdf:RDF></metadata><defs
     id="defs6" /><sodipodi:namedview
     pagecolor="#ffffff"
     bordercolor="#666666"
     borderopacity="1"
     objecttolerance="10"
     gridtolerance="10"
     guidetolerance="10"
     inkscape:pageopacity="0"
     inkscape:pageshadow="2"
     inkscape:window-width="1437"
     inkscape:window-height="720"
     id="namedview4"
     showgrid="true"
     inkscape:zoom="22.250293"
     inkscape:cx="2.9065264"
     inkscape:cy="9.7433301"
     inkscape:window-x="0"
     inkscape:window-y="0"
     inkscape:window-maximized="0"
     inkscape:current-layer="svg4619"><inkscape:grid
       type="xygrid"
       id="grid3336" /></sodipodi:namedview><path
     style="fill:#000000;fill-opacity:1"
     d="m 8,1.0000001 -2,2 -3,0 c 0,0 -1,0 -1,1 L 2,13 c 0,1 1,1 1,1 l 9,0 c 0,0 1,0 1,-1 L 13,2.0000001 c 0,-1.0000001 -1,-1 -1,-1 l -4,0 z m 0.5,1 2,0 c 0.277,0 0.5,0.223 0.5,0.5 0,0.277 -0.223,0.5 -0.5,0.5 l -2,0 c -0.277,0 -0.5,-0.223 -0.5,-0.5 0,-0.277 0.223,-0.5 0.5,-0.5 z m -1,4 c 1.6568543,0 3,1.3431458 3,2.9999999 0,1.656854 -1.3431457,3 -3,3 -1.6568543,0 -3,-1.343146 -3,-3 0,-1.6568541 1.3431457,-2.9999999 3,-2.9999999 z"
     id="path3291-2"
     inkscape:connector-curvature="0" /></svg>

<?xml version="1.0" encoding="utf-8"?>
<!-- Generator: Adobe Illustrator 19.2.1, SVG Export Plug-In . SVG Version: 6.00 Build 0)  -->
<!DOCTYPE svg PUBLIC "-//W3C//DTD SVG 1.1//EN" "http://www.w3.org/Graphics/SVG/1.1/DTD/svg11.dtd">
<svg version="1.1"
	 id="svg4619" inkscape:version="0.91 r13725" sodipodi:docname="laundry-15.svg" xmlns:cc="http://creativecommons.org/ns#" xmlns:dc="http://purl.org/dc/elements/1.1/" xmlns:inkscape="http://www.inkscape.org/namespaces/inkscape" xmlns:rdf="http://www.w3.org/1999/02/22-rdf-syntax-ns#" xmlns:sodipodi="http://sodipodi.sourceforge.net/DTD/sodipodi-0.dtd" xmlns:svg="http://www.w3.org/2000/svg"
	 xmlns="http://www.w3.org/2000/svg" xmlns:xlink="http://www.w3.org/1999/xlink" x="0px" y="0px" width="15px" height="15px"
	 viewBox="0 0 15 15" style="enable-background:new 0 0 15 15;" xml:space="preserve">
<path id="path3291-2" inkscape:connector-curvature="0" d="M8,1L6,3H3c0,0-1,0-1,1v9c0,1,1,1,1,1h9c0,0,1,0,1-1V2c0-1-1-1-1-1
	S8,1,8,1z M8.5,2h2C10.777,2,11,2.223,11,2.5S10.777,3,10.5,3h-2C8.223,3,8,2.777,8,2.5S8.223,2,8.5,2z M7.5,6
	c1.6569,0,3,1.3431,3,3s-1.3431,3-3,3s-3-1.3431-3-3S5.8431,6,7.5,6z"/>
</svg>
